hero/solid/forward.svg

<svg width="24" height="24" viewBox="0 0 24 24" fill="none" xmlns="http://www.w3.org/2000/svg">
<path d="M5.05526 7.06061C3.80528 6.34633 2.25 7.24889 2.25 8.68856V16.8114C2.25 18.2511 3.80528 19.1536 5.05526 18.4394L12 14.4709V16.8114C12 18.2511 13.5553 19.1536 14.8053 18.4394L21.9128 14.3779C23.1724 13.6581 23.1724 11.8418 21.9128 11.122L14.8053 7.06061C13.5553 6.34633 12 7.24889 12 8.68856V11.029L5.05526 7.06061Z" fill="#0F172A"/>
</svg>

<svg viewBox="0 0 24 24" xmlns="http://www.w3.org/2000/svg"><path d="M5.055 7.06c-1.25-.72-2.81.18-2.81 1.62v8.12c0 1.44 1.55 2.34 2.8 1.62l6.945-3.968v2.34c0 1.44 1.55 2.34 2.8 1.62l7.1-4.061c1.26-.72 1.26-2.54 0-3.26l-7.11-4.07c-1.25-.72-2.81.19-2.81 1.62v2.34L5.025 7.01Z"/></svg>
